style-guide/assets/xd-icons-question-mark.svg

<?xml version="1.0" encoding="UTF-8"?>
<svg width="24px" height="24px" viewBox="0 0 24 24" version="1.1" xmlns="http://www.w3.org/2000/svg" xmlns:xlink="http://www.w3.org/1999/xlink">
    <!-- Generator: Sketch 51.3 (57544) - http://www.bohemiancoding.com/sketch -->
    <title>question</title>
    <desc>Created with Sketch.</desc>
    <defs>
        <path d="M12,22 C6.486,22 2,17.514 2,12 C2,6.486 6.486,2 12,2 C17.514,2 22,6.486 22,12 C22,17.514 17.514,22 12,22 M12,0 C5.383,0 0,5.383 0,12 C0,18.617 5.383,24 12,24 C18.617,24 24,18.617 24,12 C24,5.383 18.617,0 12,0 M12,5 C10.309,5 8.792,6.072 8.229,7.666 C8.044,8.188 8.316,8.759 8.838,8.943 C9.355,9.129 9.93,8.854 10.113,8.334 C10.396,7.536 11.154,7 12,7 C13.103,7 14,7.896 14,9 C14,10.104 13.103,11 12,11 C11.447,11 11,11.447 11,12 L11,14 C11,14.553 11.447,15 12,15 C12.553,15 13,14.553 13,14 L13,12.873 C14.724,12.428 16,10.86 16,9 C16,6.795 14.206,5 12,5 M11.9951,16.9902 C11.4421,16.9902 10.9891,17.4432 10.9891,17.9952 C10.9891,18.5472 11.4421,19.0002 11.9951,19.0002 C12.5481,19.0002 13.0001,18.5472 13.0001,17.9952 C13.0001,17.4432 12.5481,16.9902 11.9951,16.9902" id="path-1"></path>
    </defs>
    <g id="question" stroke="none" stroke-width="1" fill="none" fill-rule="evenodd">
        <mask id="mask-2" fill="white">
            <use xlink:href="#path-1"></use>
        </mask>
        <use id="icons/24px/Question" fill="#000000" xlink:href="#path-1"></use>
    </g>
</svg>

<svg viewBox="0 0 24 24" xmlns="http://www.w3.org/2000/svg" xmlns:xlink="http://www.w3.org/1999/xlink">
  <path d="M12 22C6.486 22 2 17.514 2 12S6.486 2 12 2s10 4.486 10 10-4.486 10-10 10m0-22C5.383 0 0 5.383 0 12s5.383 12 12 12 12-5.383 12-12S18.617 0 12 0m0 5a4.007 4.007 0 0 0-3.771 2.666.998.998 0 1 0 1.884.668A2.001 2.001 0 0 1 14 9c0 1.104-.897 2-2 2a1 1 0 0 0-1 1v2a1 1 0 1 0 2 0v-1.127A4.006 4.006 0 0 0 16 9c0-2.205-1.794-4-4-4m-.005 11.99a1.01 1.01 0 0 0-1.006 1.005A1.01 1.01 0 0 0 11.995 19c.553 0 1.005-.453 1.005-1.005 0-.552-.452-1.005-1.005-1.005"/>
</svg>
